X:1
T:Title
%%score { ( 1 3 ) | ( 2 4 ) }
L:1/8
Q:1/4=100
M:4/4
K:Ab
V:1 treble nm="Grand Piano"
V:3 treble 
V:2 bass 
V:4 bass 
V:1
 [CE]3 [CE] [DF]2 [EG]2 | [EA]2 B2 c2 A2 | d3 d c2 c2 | B2 B2 B4 | E3 E F2 [EG]2 | [EA]2 B2 c2 d2 | %6
w: E.~O.~Sellers * * *||||||
 e3 d c2 [FB]2 | [EA]2 [DG]2 [CA]4 |[M:1/4] A>A |[M:4/4] G6 z2 | A6 z2 | B6 z2 | c6 z2 | c6 z2 | %14
w: ||||||||
 d6 z2 | c3 e c2 B2 |[M:3/4] [CA]6 |] %17
w: |||
V:2
 [A,,A,]3 [A,,A,] [D,A,]2 [D,B,]2 | [C,A,]2 [E,G,E]2 [A,E]2 [A,CE]2 | %2
 [G,B,E]3 [G,B,E] [A,E]2 [A,E]2 | [G,B,E]2 [F,A,=D]2 [E,G,E]4 | [A,C]3 [A,C] [D,A,D]2 [D,B,]2 | %5
 [C,A,]2 [E,G,E]2[K:treble] [A,E]2 [A,B,E]2 | [A,CE]3 [A,FA] [A,EA]2[K:bass] [D,D]2 | %7
 [E,C]2 [E,B,]2 [A,,A,]4 |[M:1/4] z2 |[M:4/4] z2 [E,B,]>[E,B,] .[E,B,]2 z2 | %10
 z [A,C][A,D][A,D] [A,C]2 z2 | z2 [E,G,]>[E,G,] [E,G,][E,G,E][K:treble]FG | A6[K:bass] z2 | %13
 z2 A,>A, A,2 z2 | z2 [D,A,][D,A,] [D,A,]2 [D,A,][D,A,] | [E,A,E]3 [E,CE] [E,A,E]2 [E,D]2 | %16
[M:3/4] [A,,E,]6 |] %17
V:3
 x8 | x8 | x8 | x8 | x8 | x8 | x8 | x8 |[M:1/4] x2 |[M:4/4] z2 D>D Dd F>G | z EFF E2 A>A | %11
 z2 E>E Ecde | z2 EE E2 e>e | z2 E>E Ec B>A | z2 FF F2 [FA][=Ed] | x8 |[M:3/4] x6 |] %17
V:4
 x8 | x8 | x8 | x8 | x8 | x4[K:treble] x4 | x6[K:bass] x2 | x8 |[M:1/4] x2 |[M:4/4] x8 | x8 | %11
 x6[K:treble] x2 | z2 A,A,[K:bass] A,2 z2 | x8 | x8 | x8 |[M:3/4] x6 |] %17

